src/status/22/qbittorrent-tray.svg

<svg width="22" height="22" version="1" xmlns="http://www.w3.org/2000/svg">
 <defs>
  <style id="current-color-scheme" type="text/css">.ColorScheme-Text { color:#363636; } .ColorScheme-Highlight { color:#4285f4; }</style>
 </defs>
 <path d="m10.99 2a9 9 0 0 0-8.9902 9 9 9 0 0 0 9 9 9 9 0 0 0 9-9 9 9 0 0 0-9-9 9 9 0 0 0-0.009766 0zm0.009766 1a8 8 0 0 1 8 8 8 8 0 0 1-8 8 8 8 0 0 1-8-8 8 8 0 0 1 8-8zm1 2v6.9473a3 3 0 0 0 0 0.052734v3h1v-0.76367a3 3 0 0 0 2 0.76367 3 3 0 0 0 0.050781 0 3 3 0 0 0 2.9492-3 3 3 0 0 0-3-3 3 3 0 0 0-2 0.76562v-4.7656h-1zm-5.0508 2a3 3 0 0 0-2.9492 3 3 3 0 0 0 3 3 3 3 0 0 0 2-0.76562v4.7656h1v-6.9473a3 3 0 0 0 0-0.052734v-3h-1v0.76367a3 3 0 0 0-2-0.76367 3 3 0 0 0-0.050781 0zm0 1a2 2 0 0 1 0.0019531 0 2 2 0 0 1 0.048828 0 2 2 0 0 1 2 1.9512 2 2 0 0 1 0 0.048828 2 2 0 0 1-2 2 2 2 0 0 1-2-2 2 2 0 0 1 1.9492-2zm8 2a2 2 0 0 1 0.001953 0 2 2 0 0 1 0.048828 0 2 2 0 0 1 2 2 2 2 0 0 1-1.9512 2 2 2 0 0 1-0.048828 0 2 2 0 0 1-2-2 2 2 0 0 1 1.9492-2z" class="ColorScheme-Text" fill="currentColor"/>
</svg>

<svg xmlns="http://www.w3.org/2000/svg" width="22" height="22" version="1">
    <defs>
        <style id="current-color-scheme" type="text/css">
            .ColorScheme-Highlight{color:#a0b6cb}
        </style>
    </defs>
    <path fill="currentColor" d="M10.99 2A9 9 0 0 0 2 11a9 9 0 0 0 9 9 9 9 0 0 0 9-9 9 9 0 0 0-9-9 9 9 0 0 0-.01 0zM11 3a8 8 0 0 1 8 8 8 8 0 0 1-8 8 8 8 0 0 1-8-8 8 8 0 0 1 8-8zm1 2v6.947A3 3 0 0 0 12 12v3h1v-.764A3 3 0 0 0 15 15a3 3 0 0 0 .05 0A3 3 0 0 0 18 12a3 3 0 0 0-3-3 3 3 0 0 0-2 .766V5h-1zM6.949 7a3 3 0 0 0-2.95 3 3 3 0 0 0 3 3 3 3 0 0 0 2-.766V17h1v-6.947A3 3 0 0 0 10 10V7H9v.764A3 3 0 0 0 7 7a3 3 0 0 0-.05 0zm0 1a2 2 0 0 1 .002 0A2 2 0 0 1 7 8a2 2 0 0 1 2 1.951A2 2 0 0 1 9 10a2 2 0 0 1-2 2 2 2 0 0 1-2-2 2 2 0 0 1 1.949-2zm8 2a2 2 0 0 1 .002 0A2 2 0 0 1 15 10a2 2 0 0 1 2 2 2 2 0 0 1-1.951 2 2 2 0 0 1-.05 0 2 2 0 0 1-2-2 2 2 0 0 1 1.95-2z" style="color:#050505;opacity:.7"/>
</svg>
